client/public/assets/icons/action/new_custom36.svg

<?xml version="1.0"?><svg xmlns="http://www.w3.org/2000/svg" width="52" height="52" viewBox="0 0 52 52"><g fill="#fff"><path d="m17.2 43.6h-3.2c-0.5 0-1.1 0.3-1.3 0.8l-1.1 1.9c-0.6 1.1-0.4 2.6 0.6 3.3 0.4 0.3 0.9 0.4 1.3 0.4 0.8 0 1.6-0.4 2-1.2l2.3-4c0.4-0.6 0-1.2-0.6-1.2z m22.2 0.8c-0.3-0.5-0.8-0.8-1.3-0.8h-3.2c-0.6 0-1 0.6-0.7 1.2l2.3 4c0.5 0.8 1.3 1.2 2 1.2 0.5 0 0.9-0.2 1.3-0.4 1-0.7 1.3-2.2 0.6-3.3l-1-1.9z m-0.1-42.4h-26.6c-2.6 0-4.7 2.2-4.7 4.8v27.2c0 2.6 2.1 4.8 4.7 4.8h26.6c2.6 0 4.7-2.2 4.7-4.8v-27.2c0-2.6-2.1-4.8-4.7-4.8z m-24.3 33.6c-1.3 0-2.3-1-2.3-2.4s1-2.4 2.3-2.4 2.3 1 2.3 2.4-0.9 2.4-2.3 2.4z m22 0c-1.3 0-2.3-1-2.3-2.4s1-2.4 2.3-2.4 2.3 1 2.3 2.4-1 2.4-2.3 2.4z m2.3-9.6c0 0.9-0.7 1.6-1.6 1.6h-23.4c-0.9 0-1.6-0.7-1.6-1.6v-16c0-0.9 0.7-1.6 1.6-1.6h23.5c0.9 0 1.6 0.7 1.6 1.6v16z"></path></g></svg>

<?xml version="1.0" encoding="utf-8"?>
<!-- Generator: Adobe Illustrator 18.1.1, SVG Export Plug-In . SVG Version: 6.00 Build 0)  -->
<svg version="1.1" id="Layer_1" xmlns="http://www.w3.org/2000/svg" xmlns:xlink="http://www.w3.org/1999/xlink" x="0px" y="0px"
	 width="52px" height="52px" viewBox="0 0 52 52" enable-background="new 0 0 52 52" xml:space="preserve">
<g>
	<path fill="#FFFFFF" d="M17.2,43.6h-3.2c-0.5,0-1.1,0.3-1.3,0.8l-1.1,1.9c-0.6,1.1-0.4,2.6,0.6,3.3c0.4,0.3,0.9,0.4,1.3,0.4
		c0.8,0,1.6-0.4,2-1.2l2.3-4C18.2,44.2,17.8,43.6,17.2,43.6z"/>
	<path fill="#FFFFFF" d="M39.4,44.4c-0.3-0.5-0.8-0.8-1.3-0.8h-3.2c-0.6,0-1,0.6-0.7,1.2l2.3,4c0.5,0.8,1.3,1.2,2,1.2
		c0.5,0,0.9-0.2,1.3-0.4c1-0.7,1.3-2.2,0.6-3.3L39.4,44.4z"/>
	<path fill="#FFFFFF" d="M39.3,2H12.7C10.1,2,8,4.2,8,6.8V34c0,2.6,2.1,4.8,4.7,4.8h26.6c2.6,0,4.7-2.2,4.7-4.8V6.8
		C44,4.2,41.9,2,39.3,2z M15,35.6c-1.3,0-2.3-1-2.3-2.4s1-2.4,2.3-2.4s2.3,1,2.3,2.4S16.4,35.6,15,35.6z M37,35.6
		c-1.3,0-2.3-1-2.3-2.4s1-2.4,2.3-2.4s2.3,1,2.3,2.4S38.3,35.6,37,35.6z M39.3,26c0,0.9-0.7,1.6-1.6,1.6H14.3
		c-0.9,0-1.6-0.7-1.6-1.6V10c0-0.9,0.7-1.6,1.6-1.6h23.5c0.9,0,1.6,0.7,1.6,1.6V26z"/>
</g>
</svg>
